src/pages/elements/pictograms/images/17_Clearance_4_do.svg

<?xml version="1.0" encoding="UTF-8"?>
<svg width="288px" height="288px" viewBox="0 0 288 288" version="1.1" xmlns="http://www.w3.org/2000/svg" xmlns:xlink="http://www.w3.org/1999/xlink">
    <!-- Generator: Sketch 52.4 (67378) - http://www.bohemiancoding.com/sketch -->
    <title>Artboard</title>
    <desc>Created with Sketch.</desc>
    <defs>
        <polygon id="path-1" points="0 96 192 96 192 0 0 0"></polygon>
    </defs>
    <g id="Artboard" stroke="none" stroke-width="1" fill="none" fill-rule="evenodd">
        <g id="Clearance-do-Copy" fill="#FFFFFF">
            <rect id="Rectangle-3" x="0" y="0" width="288" height="288"></rect>
        </g>
        <g id="Group-23-Copy" transform="translate(48.000000, 96.000000)">
            <polygon id="Fill-1" fill="#FFFFFF" points="0 96 192 96 192 0 0 0"></polygon>
            <path d="M0,0.0006 L0,8.0006 L0,16.0006 L0,80.0006 L0,88.0006 L0,96.0006 L96,96.0006 L96,88.0006 L96,80.0006 L96,16.0006 L96,8.0006 L96,0.0006 L0,0.0006 Z M16,79.9986 L79.998,79.9986 L79.998,16.0006 L16,16.0006 L16,79.9986 Z" id="Fill-2" fill="#C9DEFF"></path>
            <g id="Group-22">
                <path d="M52.0126,18.7168 C50.8786,18.7168 49.7726,19.3048 49.1666,20.3528 L43.1666,30.7468 C42.2626,32.3148 42.8006,34.3248 44.3666,35.2288 C45.1226,35.6648 46.0066,35.7788 46.8546,35.5508 C47.7046,35.3248 48.4126,34.7808 48.8466,34.0268 L54.8466,23.6348 C55.2826,22.8788 55.3986,21.9968 55.1706,21.1468 C54.9426,20.2988 54.4026,19.5908 53.6466,19.1548 C53.1326,18.8568 52.5686,18.7168 52.0126,18.7168 M45.9906,37.1048 C45.1746,37.1048 44.3706,36.8928 43.6466,36.4748 C41.3926,35.1748 40.6186,32.2808 41.9206,30.0268 L47.9206,19.6348 C49.2206,17.3808 52.1126,16.6048 54.3666,17.9088 C55.4546,18.5348 56.2346,19.5548 56.5606,20.7748 C56.8886,21.9968 56.7226,23.2648 56.0946,24.3528 L50.0946,34.7468 C49.4666,35.8368 48.4486,36.6148 47.2266,36.9408 C46.8186,37.0508 46.4026,37.1048 45.9906,37.1048" id="Fill-3" fill="#000000"></path>
                <path d="M60.416,65.6132 C59.848,65.6132 59.286,65.7612 58.776,66.0572 C58.014,66.4952 57.472,67.2012 57.246,68.0432 C57.02,68.8872 57.138,69.7692 57.578,70.5312 C58.018,71.2912 58.722,71.8352 59.564,72.0612 L59.566,72.0612 L71.156,75.1652 C71.998,75.3872 72.882,75.2752 73.642,74.8332 C74.404,74.3952 74.948,73.6892 75.174,72.8472 C75.642,71.1012 74.6,69.2992 72.854,68.8292 L61.262,65.7252 C60.984,65.6512 60.7,65.6132 60.416,65.6132 M72.006,76.7192 C71.598,76.7192 71.188,76.6652 70.784,76.5572 L59.192,73.4512 C57.978,73.1272 56.962,72.3452 56.33,71.2492 C55.698,70.1552 55.53,68.8852 55.854,67.6712 C56.18,66.4572 56.962,65.4412 58.056,64.8092 C59.152,64.1772 60.422,64.0072 61.636,64.3332 L73.226,67.4392 C75.74,68.1132 77.238,70.7072 76.564,73.2192 C76.24,74.4332 75.458,75.4492 74.364,76.0812 C73.632,76.5032 72.824,76.7192 72.006,76.7192" id="Fill-5" fill="#000000"></path>
                <path d="M28.0138,50.3294 C27.7258,50.3294 27.4378,50.3694 27.1518,50.4454 C26.3018,50.6714 25.5938,51.2154 25.1598,51.9694 L19.1598,62.3614 C18.7218,63.1174 18.6078,63.9994 18.8358,64.8494 C19.0638,65.6974 19.6038,66.4054 20.3598,66.8414 C21.9258,67.7454 23.9358,67.2074 24.8398,65.6434 L30.8398,55.2494 C31.7438,53.6814 31.2058,51.6714 29.6398,50.7674 C29.1378,50.4794 28.5798,50.3294 28.0138,50.3294 Z M21.9918,68.7194 C21.1918,68.7194 20.3798,68.5154 19.6398,68.0874 C18.5518,67.4614 17.7718,66.4414 17.4458,65.2214 C17.1178,63.9994 17.2838,62.7294 17.9118,61.6434 L23.9118,51.2494 C24.5398,50.1594 25.5578,49.3814 26.7798,49.0554 C27.9998,48.7294 29.2718,48.8934 30.3598,49.5214 C32.6138,50.8214 33.3878,53.7154 32.0878,55.9694 L26.0878,66.3614 C25.2138,67.8734 23.6238,68.7194 21.9918,68.7194 Z" id="Fill-7" fill="#000000"></path>
                <path d="M65.996,40.7168 C65.44,40.7168 64.876,40.8568 64.362,41.1548 C63.606,41.5908 63.066,42.2988 62.838,43.1468 C62.61,43.9968 62.724,44.8788 63.162,45.6348 L69.162,56.0268 C69.596,56.7808 70.304,57.3248 71.154,57.5508 C72.002,57.7788 72.886,57.6648 73.642,57.2288 C75.208,56.3248 75.746,54.3148 74.842,52.7468 L68.842,42.3528 C68.236,41.3048 67.13,40.7168 65.996,40.7168 M72.018,59.1048 C71.606,59.1048 71.19,59.0508 70.782,58.9408 C69.56,58.6148 68.542,57.8368 67.914,56.7468 L61.914,46.3528 C61.286,45.2668 61.12,43.9968 61.448,42.7748 C61.774,41.5548 62.554,40.5348 63.642,39.9088 C65.894,38.6048 68.788,39.3828 70.088,41.6348 L76.088,52.0268 C77.39,54.2808 76.616,57.1748 74.362,58.4748 C73.638,58.8928 72.834,59.1048 72.018,59.1048" id="Fill-9" fill="#000000"></path>
                <path d="M34.3886,24.7168 C33.8326,24.7168 33.2686,24.8568 32.7546,25.1548 L22.3606,31.1548 C21.6066,31.5908 21.0646,32.2988 20.8386,33.1468 C20.6106,33.9968 20.7246,34.8788 21.1606,35.6348 C21.5966,36.3888 22.3046,36.9308 23.1546,37.1588 C24.0026,37.3868 24.8866,37.2728 25.6406,36.8368 L36.0346,30.8368 C37.5986,29.9308 38.1386,27.9228 37.2346,26.3528 C36.6286,25.3048 35.5226,24.7168 34.3886,24.7168 M24.0166,38.7128 C23.6046,38.7128 23.1906,38.6588 22.7806,38.5488 C21.5606,38.2228 20.5426,37.4428 19.9146,36.3528 C19.2846,35.2668 19.1206,33.9968 19.4466,32.7748 C19.7746,31.5548 20.5546,30.5348 21.6406,29.9088 L32.0346,23.9088 C34.2866,22.6048 37.1806,23.3828 38.4806,25.6348 C39.7826,27.8888 39.0066,30.7808 36.7546,32.0828 L26.3606,38.0828 C25.6386,38.5008 24.8346,38.7128 24.0166,38.7128" id="Fill-11" fill="#000000"></path>
                <path d="M42.3868,64.7226 C41.8308,64.7226 41.2668,64.8626 40.7508,65.1606 L30.3588,71.1606 C29.6048,71.5966 29.0628,72.3046 28.8368,73.1526 C28.6088,74.0026 28.7228,74.8846 29.1588,75.6406 C29.5948,76.3946 30.3028,76.9366 31.1508,77.1646 C32.0008,77.3926 32.8848,77.2766 33.6388,76.8426 L44.0308,70.8426 C45.5968,69.9366 46.1368,67.9286 45.2328,66.3586 C44.6248,65.3106 43.5208,64.7226 42.3868,64.7226 M32.0148,78.7186 C31.6028,78.7186 31.1888,78.6646 30.7788,78.5546 C29.5568,78.2286 28.5388,77.4486 27.9108,76.3586 C27.2828,75.2706 27.1168,74.0026 27.4448,72.7806 C27.7728,71.5606 28.5528,70.5406 29.6388,69.9146 L40.0308,63.9146 C42.2828,62.6126 45.1768,63.3866 46.4788,65.6406 C47.7808,67.8946 47.0048,70.7866 44.7508,72.0886 L34.3588,78.0886 C33.6368,78.5066 32.8328,78.7186 32.0148,78.7186" id="Fill-13" fill="#000000"></path>
                <path d="M63.6202,22.7168 C62.4862,22.7168 61.3822,23.3048 60.7742,24.3528 C59.8702,25.9228 60.4102,27.9308 61.9762,28.8368 L72.3682,34.8368 C73.1222,35.2708 74.0082,35.3868 74.8562,35.1588 C75.7042,34.9308 76.4122,34.3888 76.8482,33.6348 C77.2842,32.8788 77.4002,31.9968 77.1702,31.1468 C76.9442,30.2988 76.4022,29.5908 75.6482,29.1548 L65.2562,23.1548 C64.7402,22.8568 64.1762,22.7168 63.6202,22.7168 M73.9922,36.7128 C73.1742,36.7128 72.3702,36.5008 71.6482,36.0828 L61.2562,30.0828 C59.0022,28.7808 58.2262,25.8888 59.5282,23.6348 C60.8282,21.3808 63.7202,20.6068 65.9762,21.9088 L76.3682,27.9088 C77.4542,28.5348 78.2362,29.5548 78.5622,30.7748 C78.8902,31.9968 78.7242,33.2668 78.0962,34.3528 C77.4682,35.4428 76.4502,36.2228 75.2282,36.5488 C74.8182,36.6588 74.4042,36.7128 73.9922,36.7128" id="Fill-15" fill="#000000"></path>
                <path d="M41.629,44.7226 C41.341,44.7226 41.053,44.7626 40.767,44.8386 C39.919,45.0646 39.211,45.6066 38.775,46.3606 C38.339,47.1166 38.225,48.0006 38.453,48.8486 C38.679,49.6966 39.221,50.4066 39.975,50.8426 L50.367,56.8426 C51.935,57.7466 53.945,57.2066 54.849,55.6426 C55.753,54.0746 55.213,52.0646 53.647,51.1606 L43.255,45.1606 C42.753,44.8706 42.197,44.7226 41.629,44.7226 M52.001,58.7186 C51.199,58.7186 50.389,58.5146 49.647,58.0886 L39.255,52.0886 C38.169,51.4606 37.389,50.4406 37.061,49.2206 C36.733,48.0006 36.899,46.7306 37.527,45.6426 C38.155,44.5526 39.173,43.7726 40.395,43.4466 C41.617,43.1206 42.887,43.2846 43.975,43.9146 L54.367,49.9146 C56.621,51.2146 57.397,54.1066 56.095,56.3606 C55.221,57.8726 53.633,58.7186 52.001,58.7186" id="Fill-17" fill="#000000"></path>
                <mask id="mask-2" fill="white">
                    <use xlink:href="#path-1"></use>
                </mask>
                <g id="Clip-20"></g>
                <path d="M112,80 L176,80 L176,16 L112,16 L112,80 Z M96,0 L96,8 L96,16 L96,80 L96,88 L96,96 L192,96 L192,88 L192,80 L192,16 L192,8 L192,0 L96,0 Z" id="Fill-19" fill="#C9DEFF" mask="url(#mask-2)"></path>
                <path d="M147.503,63.7618 L147.747,63.6618 C149.533,62.9358 150.687,61.2198 150.687,59.2938 L150.691,54.7698 C150.695,51.0838 147.857,47.9358 144.365,47.7518 C142.493,47.6638 140.745,48.3038 139.403,49.5758 C138.057,50.8518 137.317,52.5738 137.317,54.4278 L137.315,59.2838 C137.313,61.2178 138.471,62.9358 140.265,63.6618 L140.507,63.7618 L140.507,73.9818 L141.947,73.9818 L141.947,63.2818 C141.947,62.9878 141.697,62.6858 141.423,62.5758 L140.803,62.3258 C139.557,61.8218 138.753,60.6298 138.753,59.2838 L138.757,54.4278 C138.757,52.9738 139.337,51.6238 140.393,50.6218 C141.449,49.6218 142.847,49.1538 144.289,49.1898 C147.027,49.3338 149.253,51.8358 149.251,54.7698 L149.249,59.2938 C149.247,60.6338 148.445,61.8238 147.205,62.3278 L146.513,62.6098 C146.241,62.7198 146.063,62.9838 146.063,63.2778 L146.063,73.9818 L147.503,73.9818 L147.503,63.7618 Z M124.719,77.2778 L163.279,77.2778 L163.279,32.7198 L124.719,32.7198 L124.719,77.2778 Z M164.719,77.9998 L164.719,31.9998 C164.719,31.6018 164.397,31.2798 164.001,31.2798 L124.001,31.2798 C123.603,31.2798 123.281,31.6018 123.281,31.9998 L123.281,77.9998 C123.281,78.3978 123.603,78.7198 124.001,78.7198 L164.001,78.7198 C164.397,78.7198 164.719,78.3978 164.719,77.9998 Z M146.281,40.9998 C146.281,42.2578 145.257,43.2798 144.001,43.2798 C142.743,43.2798 141.719,42.2578 141.719,40.9998 C141.719,39.7418 142.743,38.7198 144.001,38.7198 C145.257,38.7198 146.281,39.7418 146.281,40.9998 Z M147.719,40.9998 C147.719,38.9498 146.051,37.2798 144.001,37.2798 C141.949,37.2798 140.281,38.9498 140.281,40.9998 C140.281,43.0518 141.949,44.7198 144.001,44.7198 C146.051,44.7198 147.719,43.0518 147.719,40.9998 Z M142.519,25.4998 L136.001,18.9818 L129.561,25.4218 L130.579,26.4418 L136.001,21.0178 L141.501,26.5198 L142.519,25.4998 Z M158.579,20.4418 L157.561,19.4218 L152.001,24.9818 L146.519,19.4998 L145.501,20.5198 L152.001,27.0178 L158.579,20.4418 Z M173.279,77.9998 L174.719,77.9998 L174.719,17.9998 L173.279,17.9998 L173.279,77.9998 Z M113.279,77.9998 L114.719,77.9998 L114.719,17.9998 L113.279,17.9998 L113.279,77.9998 Z" id="Fill-21" fill="#000000" mask="url(#mask-2)"></path>
            </g>
        </g>
    </g>
</svg>

<svg xmlns="http://www.w3.org/2000/svg" xmlns:xlink="http://www.w3.org/1999/xlink" viewBox="0 0 288 288"><defs><path id="a" d="M0 96h192V0H0z"/></defs><g fill="none" fill-rule="evenodd"><path d="M0 0h288v288H0z" fill="#FFF"/><path fill="#FFF" d="M48 192h192V96H48z"/><path d="M48 96v96h96V96H48zm16 80h63.998v-64H64v63.998z" fill="#C9DEFF"/><g transform="translate(48 96)"><path d="M52.013 18.717c-1.134 0-2.24.588-2.846 1.636l-6 10.394a3.285 3.285 0 001.2 4.482c.756.436 1.64.55 2.488.322a3.246 3.246 0 001.992-1.524l6-10.392a3.255 3.255 0 00.324-2.488 3.257 3.257 0 00-1.524-1.992 3.249 3.249 0 00-1.634-.438M45.99 37.105c-.816 0-1.62-.212-2.344-.63a4.724 4.724 0 01-1.726-6.448l6-10.392a4.72 4.72 0 016.446-1.726 4.676 4.676 0 012.194 2.866 4.677 4.677 0 01-.466 3.578l-6 10.394a4.673 4.673 0 01-2.868 2.194 4.75 4.75 0 01-1.236.164m14.426 28.508c-.568 0-1.13.148-1.64.444a3.247 3.247 0 00-1.53 1.986 3.256 3.256 0 00.332 2.488 3.26 3.26 0 001.986 1.53h.002l11.59 3.104a3.26 3.26 0 002.486-.332 3.25 3.25 0 001.532-1.986 3.287 3.287 0 00-2.32-4.018l-11.592-3.104a3.288 3.288 0 00-.846-.112m11.59 11.106c-.408 0-.818-.054-1.222-.162l-11.592-3.106a4.677 4.677 0 01-2.862-2.202 4.688 4.688 0 01-.476-3.578 4.692 4.692 0 012.202-2.862 4.685 4.685 0 013.58-.476l11.59 3.106a4.725 4.725 0 013.338 5.78 4.681 4.681 0 01-2.2 2.862 4.708 4.708 0 01-2.358.638M28.014 50.33c-.288 0-.576.04-.862.115-.85.226-1.558.77-1.992 1.524l-6 10.392a3.246 3.246 0 00-.324 2.488 3.257 3.257 0 001.524 1.992 3.285 3.285 0 004.48-1.198l6-10.394a3.285 3.285 0 00-1.2-4.482 3.262 3.262 0 00-1.626-.438zm-6.022 18.39a4.69 4.69 0 01-2.352-.633 4.676 4.676 0 01-2.194-2.866 4.676 4.676 0 01.466-3.578l6-10.394a4.673 4.673 0 012.868-2.194 4.692 4.692 0 013.58.466 4.727 4.727 0 011.728 6.448l-6 10.392a4.725 4.725 0 01-4.096 2.358zm44.004-28.003c-.556 0-1.12.14-1.634.438a3.257 3.257 0 00-1.524 1.992 3.246 3.246 0 00.324 2.488l6 10.392a3.246 3.246 0 001.992 1.524 3.255 3.255 0 002.488-.322 3.285 3.285 0 001.2-4.482l-6-10.394a3.285 3.285 0 00-2.846-1.636m6.022 18.388a4.75 4.75 0 01-1.236-.164 4.673 4.673 0 01-2.868-2.194l-6-10.394a4.676 4.676 0 01-.466-3.578 4.676 4.676 0 012.194-2.866 4.722 4.722 0 016.446 1.726l6 10.392a4.724 4.724 0 01-1.726 6.448 4.673 4.673 0 01-2.344.63M34.389 24.717c-.556 0-1.12.14-1.634.438l-10.394 6a3.254 3.254 0 00-1.522 1.992 3.262 3.262 0 002.316 4.012 3.25 3.25 0 002.486-.322l10.394-6a3.29 3.29 0 001.2-4.484 3.285 3.285 0 00-2.846-1.636M24.017 38.713c-.412 0-.826-.054-1.236-.164a4.677 4.677 0 01-2.866-2.196 4.676 4.676 0 01-.468-3.578 4.69 4.69 0 012.194-2.866l10.394-6a4.722 4.722 0 016.446 1.726 4.726 4.726 0 01-1.726 6.448l-10.394 6a4.662 4.662 0 01-2.344.63m18.37 26.01c-.556 0-1.12.14-1.636.438l-10.392 6a3.254 3.254 0 00-1.522 1.992 3.264 3.264 0 002.314 4.012c.85.228 1.734.112 2.488-.322l10.392-6a3.288 3.288 0 001.202-4.484 3.287 3.287 0 00-2.846-1.636M32.015 78.719c-.412 0-.826-.054-1.236-.164a4.676 4.676 0 01-2.868-2.196 4.677 4.677 0 01-.466-3.578 4.69 4.69 0 012.194-2.866l10.392-6a4.725 4.725 0 016.448 1.726 4.725 4.725 0 01-1.728 6.448l-10.392 6a4.662 4.662 0 01-2.344.63M63.62 22.717a3.287 3.287 0 00-2.846 1.636 3.288 3.288 0 001.202 4.484l10.392 6c.754.434 1.64.55 2.488.322a3.264 3.264 0 002.314-4.012 3.254 3.254 0 00-1.522-1.992l-10.392-6a3.261 3.261 0 00-1.636-.438m10.372 13.996a4.662 4.662 0 01-2.344-.63l-10.392-6a4.725 4.725 0 01-1.728-6.448 4.724 4.724 0 016.448-1.726l10.392 6a4.683 4.683 0 012.194 2.866 4.676 4.676 0 01-.466 3.578 4.676 4.676 0 01-2.868 2.196c-.41.11-.824.164-1.236.164m-32.363 8.01c-.288 0-.576.04-.862.116a3.254 3.254 0 00-1.992 1.522 3.255 3.255 0 00-.322 2.488 3.258 3.258 0 001.522 1.994l10.392 6a3.287 3.287 0 004.482-1.2 3.286 3.286 0 00-1.202-4.482l-10.392-6a3.236 3.236 0 00-1.626-.438m10.372 13.996a4.714 4.714 0 01-2.354-.63l-10.392-6a4.7 4.7 0 01-2.194-2.868 4.678 4.678 0 01.466-3.578 4.676 4.676 0 012.868-2.196 4.682 4.682 0 013.58.468l10.392 6a4.723 4.723 0 011.728 6.446 4.722 4.722 0 01-4.094 2.358" fill="#000"/><mask id="b" fill="#fff"><use xlink:href="#a"/></mask><path d="M112 80h64V16h-64v64zM96 0v96h96V0H96z" fill="#C9DEFF" mask="url(#b)"/><path d="M147.503 63.762l.244-.1a4.698 4.698 0 002.94-4.368l.004-4.524c.004-3.686-2.834-6.834-6.326-7.018-1.872-.088-3.62.552-4.962 1.824a6.622 6.622 0 00-2.086 4.852l-.002 4.856a4.698 4.698 0 002.95 4.378l.242.1v10.22h1.44v-10.7c0-.294-.25-.596-.524-.706l-.62-.25a3.265 3.265 0 01-2.05-3.042l.004-4.856c0-1.454.58-2.804 1.636-3.806 1.056-1 2.454-1.468 3.896-1.432 2.738.144 4.964 2.646 4.962 5.58l-.002 4.524a3.266 3.266 0 01-2.044 3.034l-.692.282a.72.72 0 00-.45.668v10.704h1.44v-10.22zm-22.784 13.516h38.56V32.72h-38.56v44.558zm40 .722V32a.72.72 0 00-.718-.72h-40a.72.72 0 00-.72.72v46c0 .398.322.72.72.72h40a.72.72 0 00.718-.72zm-18.438-37a2.283 2.283 0 01-2.28 2.28 2.283 2.283 0 01-2.282-2.28 2.283 2.283 0 012.282-2.28 2.283 2.283 0 012.28 2.28zm1.438 0c0-2.05-1.668-3.72-3.718-3.72a3.724 3.724 0 00-3.72 3.72 3.723 3.723 0 003.72 3.72 3.723 3.723 0 003.718-3.72zm-5.2-15.5l-6.518-6.518-6.44 6.44 1.018 1.02 5.422-5.424 5.5 5.502 1.018-1.02zm16.06-5.058l-1.018-1.02-5.56 5.56-5.482-5.482-1.018 1.02 6.5 6.498 6.578-6.576zM173.279 78h1.44V18h-1.44v60zm-60 0h1.44V18h-1.44v60z" fill="#000" mask="url(#b)"/></g></g></svg>
